icons/sticky-note-fill.svg

<svg xmlns="http://www.w3.org/2000/svg" width="24" height="24" fill="none"><g clip-path="url(#a)"><g><path fill="#121212" d="M15 14L14.883 14.007C14.6598 14.0333 14.4519 14.1341 14.293 14.293C14.1341 14.4519 14.0333 14.6598 14.007 14.883L14 15V21H3.998C3.73402 21.0005 3.48062 20.8962 3.29349 20.71C3.10636 20.5239 3.00079 20.271 3 20.007V3.993C3 3.445 3.445 3 3.993 3H20.007C20.555 3 21 3.447 21 3.999V14H15ZM21 16L16 20.997V16H21Z"/></g></g><defs><clipPath id="a"><rect width="24" height="24" fill="white"/></clipPath></defs></svg>

<svg width="24" height="24" fill="none" xmlns="http://www.w3.org/2000/svg"><g clip-path="url(#a)"><path d="m15 14-.117.007a1 1 0 0 0-.876.876L14 15v6H3.998A.996.996 0 0 1 3 20.007V3.993C3 3.445 3.445 3 3.993 3h16.014c.548 0 .993.447.993.999V14h-6Zm6 2-5 4.997V16h5Z" /></g><defs><clipPath id="a"><path fill="#fff" d="M0 0h24v24H0z"/></clipPath></defs></svg>
